X:822
M:C|
L:1/8
K:E Minor
e|B2 EG/A/ BGEG|AFDF dFDF|BGEG efba|gef^d e/e/e e:|
egfe B/B/B eB|defe d/d/d fd|egfg efde|BdAF E/E/E ~E||

